src/basic/800/u2B21-hex.svg

<svg width="13" height="16" viewBox="0 0 13 16" fill="none" xmlns="http://www.w3.org/2000/svg">
<path fill-rule="evenodd" clip-rule="evenodd" d="M6.5,0.94098l0.22361,0.1118l5.99999,3l0.2764,0.1382v0.30902v7v0.2872l-0.2481,0.1447l-5.99996,3.5l-0.25194,0.1469l-0.25194,-0.1469l-6,-3.5l-0.24806,-0.1447v-0.2872v-7v-0.30902l0.27639,-0.1382l6,-3zM1,4.80901v6.40379l5.5,3.2083l5.5,-3.2083v-6.40379l-5.5,-2.75z" fill="black"/>
</svg>

<svg width="13" height="16" viewBox="0 0 13 16" fill="none" xmlns="http://www.w3.org/2000/svg">
<path fill-rule="evenodd" clip-rule="evenodd" d="M6.5 0.940979L6.72361 1.05278L12.7236 4.05278L13 4.19098V4.5V11.5V11.7872L12.7519 11.9319L6.75194 15.4319L6.5 15.5788L6.24806 15.4319L0.248064 11.9319L0 11.7872V11.5V4.5V4.19098L0.276393 4.05278L6.27639 1.05278L6.5 0.940979ZM1 4.80901V11.2128L6.5 14.4211L12 11.2128V4.80901L6.5 2.05901L1 4.80901Z" fill="black"/>
</svg>
